X:814
T:Polska efter Karl Andersson,
T:(Sv. L. Sm. 18)
R:Polska
O:Loftahammar, Småland
S:efter Karl Andersson
B:Svenska Låtar Småland
N:Sv. L. Sm. 18
Z:Jonas Brunskog
M:3/4
L:1/16
K:G
|:G2g2 g2f2 e2fg|agfe d4 B2d2|d2g2 g2f2 e2fg|agfe d8:|
|:cBcd e4 c4|dcBc d4 B4|cBAB c2A2 F2A2|A2G2 G2B2 d2B2|
cBcd e4 c4|dcBc d4 B4|B2AB c2A2 F2A2|A4G8:|
(:musicend:)

(:music:)
